assets/icons/pinguins.svg

<svg xmlns="http://www.w3.org/2000/svg" viewBox="0 0 100 100"><path fill="#2d3748" d="M50 90c20 0 25-20 25-40S65 20 50 20 25 30 25 50s5 40 25 40"/><path fill="#e2e8f0" d="M50 85c15 0 20-20 20-35S60 30 50 30s-20 5-20 20 5 35 20 35"/><circle cx="43" cy="40" r="3" fill="#2d3748"/><circle cx="57" cy="40" r="3" fill="#2d3748"/><path fill="#f6ad55" d="m50 50-5 5h10Z"/><path fill="#4299e1" d="M30 30h40l-5-5H35ZM35 25c-5-5 0-10 15-10s20 5 15 10Z"/><path fill="#f6ad55" d="M45 90q-7.5 7.5-15 0v-5ZM55 90q7.5 7.5 15 0v-5Z"/></svg>

<svg xmlns='http://www.w3.org/2000/svg' viewBox='0 0 100 100'>
  <!-- Corpo do pinguim adulto -->
  <path fill='#2d3748' d='M50,90 C70,90 75,70 75,50 C75,30 65,20 50,20 C35,20 25,30 25,50 C25,70 30,90 50,90 Z'/>
  <path fill='#e2e8f0' d='M50,85 C65,85 70,65 70,50 C70,35 60,30 50,30 C40,30 30,35 30,50 C30,65 35,85 50,85 Z'/>
  <circle fill='#2d3748' cx='43' cy='40' r='3'/>
  <circle fill='#2d3748' cx='57' cy='40' r='3'/>
  <path fill='#f6ad55' d='M50,50 L45,55 L55,55 Z'/>
  
  <!-- Boné do pinguim adulto -->
  <path fill='#4299e1' d='M30,30 L70,30 L65,25 L35,25 Z'/>
  <path fill='#4299e1' d='M35,25 C30,20 35,15 50,15 C65,15 70,20 65,25 Z'/>
  
  <!-- Pés do pinguim adulto -->
  <path fill='#f6ad55' d='M45,90 C40,95 35,95 30,90 V85 Z'/>
  <path fill='#f6ad55' d='M55,90 C60,95 65,95 70,90 V85 Z'/>
  
  
</svg>
